X:1
T:Dulciana
T:Dulciana
T:James C. Embry, harm. by John T. Layton, 1897
T:Public Domain Courtesy of the Cyber Hymnal™
C:James C. Embry, harm. by John T. Layton, 1897
Z:Public Domain
Z:Courtesy of the Cyber Hymnal™
%%score ( 1 2 ) ( 3 4 )
L:1/8
Q:1/4=80
M:3/4
K:G
V:1 treble 
V:2 treble 
V:3 bass 
V:4 bass 
V:1
|: [Gd] | [GB][GB] [GB]2 [DG]2 | [Gc][GB] [GB] [FA]3 | ([Fd]2 [Ec])[DB] ([CA]!fermata![Fd]) | %4
 ([Fc]2 [DB])[CA] !fermata![B,d] :| [Gd] | [Ge][Ge] [Ge]2 [Gd]2 | [GB][GB] [GB]2 z [Gd] | %8
 [GB]G [Gc]2 [GB]2 | [FA][FA] [FA]2 z G | [GB][GB] [GB]2 G2 | [Gd][Gd] [Gd]4 | %12
 ([Fd]2 [Ec])[DB] ([CA]!fermata![Fd]) | [Ec]2 [DB][CA] !fermata![B,G] |] %14
V:2
|: x | x6 | x6 | x6 | x5 :| x | x6 | x6 | x G x4 | x5 G | x4 G2 | x6 | x6 | x5 |] %14
V:3
|: [G,B,] | [G,D][G,D] [G,D]2 [G,B,]2 | [G,E][G,D] [G,D] [D,D]3 | %3
 ([D,A,]2 [D,A,])[D,G,] ([D,F,][D,A,]) | ([D,A,]2 [D,G,])[D,F,] [G,,G,] :| [G,B,] | %6
 [G,C][G,C] [G,C]2 [G,B,]2 | [G,D][G,D] [G,D]2 z [G,B,] | [G,D][G,B,] [G,E]2 [G,D]2 | %9
 [D,D][D,D] [D,D]2 z [G,B,] | [G,D][G,D] [G,D]2 [G,B,]2 | [G,B,][G,B,] [G,B,]4 | %12
 ([D,A,]2 [D,A,])[D,F,] ([D,A,][D,A,]) | [D,A,]2 [D,G,][D,F,] [G,,G,] |] %14
V:4
|: x | x6 | x6 | x6 | x5 :| x | x6 | x6 | x6 | x6 | x6 | x6 | x D, x4 | x5 |] %14

